src/lib/packages/icons/src/assets/line/home-user.svg

<svg width="24" height="24" viewBox="0 0 24 24" fill="none" xmlns="http://www.w3.org/2000/svg">
<path d="M18 21.75H6C3.582 21.75 2.25 20.418 2.25 18V11.65C2.25 9.52704 2.83599 8.93401 3.79199 8.14101L9.91199 3.01003C11.121 1.99503 12.879 1.99503 14.088 3.01003L20.208 8.14101C21.164 8.93401 21.75 9.52804 21.75 11.65V18C21.75 20.418 20.418 21.75 18 21.75ZM12 3.75002C11.601 3.75002 11.201 3.88705 10.875 4.16005L4.74902 9.29604C4.00202 9.91604 3.75 10.125 3.75 11.651V18.001C3.75 19.578 4.423 20.251 6 20.251H18C19.577 20.251 20.25 19.578 20.25 18.001V11.651C20.25 10.125 19.998 9.91604 19.251 9.29604L13.125 4.16005C12.799 3.88605 12.399 3.75002 12 3.75002ZM12 13.0501C10.677 13.0501 9.59998 11.973 9.59998 10.65C9.59998 9.32704 10.677 8.25002 12 8.25002C13.323 8.25002 14.4 9.32704 14.4 10.65C14.4 11.973 13.323 13.0501 12 13.0501ZM12 9.75002C11.504 9.75002 11.1 10.154 11.1 10.65C11.1 11.146 11.504 11.5501 12 11.5501C12.496 11.5501 12.9 11.146 12.9 10.65C12.9 10.154 12.496 9.75002 12 9.75002ZM15 17.75C14.586 17.75 14.25 17.414 14.25 17V16.697C14.25 15.977 13.753 15.25 12.642 15.25H11.359C10.248 15.25 9.75098 15.977 9.75098 16.697V17C9.75098 17.414 9.41498 17.75 9.00098 17.75C8.58698 17.75 8.25098 17.414 8.25098 17V16.697C8.25098 15.233 9.31801 13.75 11.359 13.75H12.642C14.683 13.75 15.75 15.232 15.75 16.697V17C15.75 17.414 15.414 17.75 15 17.75Z" fill="currentColor"/>
</svg>

<svg xmlns="http://www.w3.org/2000/svg" width="24" height="24" fill="none"><path fill="currentColor" d="M18 21.75H6c-2.418 0-3.75-1.332-3.75-3.75v-6.35c0-2.123.586-2.716 1.542-3.509l6.12-5.131a3.244 3.244 0 0 1 4.176 0l6.12 5.131c.956.793 1.542 1.387 1.542 3.509V18c0 2.418-1.332 3.75-3.75 3.75Zm-6-18a1.75 1.75 0 0 0-1.125.41L4.749 9.296c-.747.62-.999.829-.999 2.355v6.35c0 1.577.673 2.25 2.25 2.25h12c1.577 0 2.25-.673 2.25-2.25v-6.35c0-1.526-.252-1.735-.999-2.355L13.125 4.16A1.745 1.745 0 0 0 12 3.75Zm0 9.3a2.403 2.403 0 0 1-2.4-2.4c0-1.323 1.077-2.4 2.4-2.4s2.4 1.077 2.4 2.4-1.077 2.4-2.4 2.4Zm0-3.3c-.496 0-.9.404-.9.9s.404.9.9.9.9-.404.9-.9-.404-.9-.9-.9Zm3 8a.75.75 0 0 1-.75-.75v-.303c0-.72-.497-1.447-1.608-1.447h-1.283c-1.111 0-1.608.727-1.608 1.447V17a.75.75 0 0 1-1.5 0v-.303c0-1.464 1.067-2.947 3.108-2.947h1.283c2.041 0 3.108 1.482 3.108 2.947V17a.75.75 0 0 1-.75.75Z"/></svg>
